X: 21254
T: Keep It Up
R: reel
M: 4/4
K: Adorian
f|:gAeA gAef|gAeA BGGf|gAeA ceae|fdgd BGGf| 
gAeA gAef|gAeA BGGf|gAeA ceae|fdgd BGG:|
B|:cAeA cAAB|cAeA BGGB|cAeA cABG|gdGd BGGB|
cAeA cAAB|cAeA BGGB|Aece BeAc|BdGd BGG:|

